X:1
T:Silent Night (Stille Nacht)
C:Music: Franz Gruber/Lyrics: Father Joseph Mohr
M:3/4
L:1/8
Q:1/2=60
K:D
V:1 Melody
|:"D""^INTRO"F3 DFA|"G"cdB4|"A"A4 Bc|"D"A4 eA|"D"F3 DFA|"G"cdB3 A|"A"GE GA Bc|"D"A6||
w:||||||||
V:2 Harmony
|:DA, DF A2|AB G3F|EC EF GA|F6|DA, DF A2|AB G3 F|EC EF GA|F6||
V:1 Melody
|"D""^VERSES"A3 B A2|F6|A3 B A2|F6|"A7"e4 e2|c6|"D"d4 d2|A6|"G"B4 B2
w:1.~Si-_lent night, ho-_ly night, all is calm, all is bright. Round yon
w:2.~Si-_lent night, ho-_ly night, shep-herds quake at the sight. Glo-ries
w:3.~Si-_lent night, ho-_ly night, Son of God, love's pure light; ra-diant
V:2 Harmony
|F3 G F2|DA, DF A2|F3 G F2|DA, DF Ad|c4 c2|A2 _A2 G2|F4 F2|D2 E2 F2|G4 G2
V:1 Melody
|d3 c B2|"D"A3 B A2|"D7"F6|"G"B4 B2|"Em"d3 c B2|"D"A3 B A2|F6|"A7"e4 e2
w:Vir-_gin Moth-er and Child, Ho-ly In-fant so ten-der and mild; sleep in
w:stream_ from heav-en a-far, Heav'n-ly hosts_ sing Al-le-lu-la; Christ the
w:beams_ from Thy ho-ly face, with the dawn_ of re-deem-ing grace; Je-sus,
V:2 Harmony
|B3 A G2|F3 G F2|D2 C2 _C2|[D4G,4] G2|B3 A G2|F3 G F2|D2 A2 d2|c4 c2
V:1 Melody
|g3 e c2|"D"d6|"Bm"f6|"D"d2 A2 F2|1"A7"A3 G E2|"D""^rit"D6:|2"A7"A3 G E2|"D""^rit"D6|!fermata!d6||
w:heav-en-ly peace;_ sleep_ in heav-en-ly peace. heav-en-ly peace._
w:Sav-ior is born;_ Christ_ the Sav-ior is born. Sav-ior is born._
w:Lord, at thy birth;_ Je_sus, Lord, at Thy birth. Lord, at Thy birth._
V:2 Harmony
|e3 c AG|F6|d6|f2 d2 A2|1c4 C2|"^rit"F6|2c4 G2|"^rit"F6|!fermata!f6||
